public/category-2.svg.svg

<svg width="31" height="31" viewBox="0 0 31 31" fill="none" xmlns="http://www.w3.org/2000/svg">
<g clip-path="url(#clip0_6511_535)">
<g clip-path="url(#clip1_6511_535)">
<g clip-path="url(#clip2_6511_535)">
<mask id="mask0_6511_535" style="mask-type:luminance" maskUnits="userSpaceOnUse" x="0" y="0" width="31" height="31">
<path d="M30.4375 0.206482H0.4375V30.2065H30.4375V0.206482Z" fill="white"/>
</mask>
<g mask="url(#mask0_6511_535)">
<path d="M24.625 13.519H13.375V14.269L13.5625 14.644L14.5 15.5815L15.25 15.9565L15.625 16.519L15.4375 17.269L14.125 17.8315L13.375 19.144L13.1875 23.0815L13.75 27.394L14.125 28.7065L14.875 29.4565C15.0625 29.519 15.5125 29.644 15.8125 29.644C16.1875 29.644 17.875 29.8315 18.25 29.8315H20.3125H21.625L21.25 29.0815C21.125 28.769 20.875 28.0315 20.875 27.5815C20.875 27.1315 20.75 25.894 20.6875 25.3315V22.519C20.6875 22.219 21.0625 20.019 21.25 18.9565V18.394C21.25 18.2065 21.8125 18.2065 22 18.019C22.1875 17.8315 22.75 17.8315 22.9375 17.8315C23.125 17.8315 23.6875 17.644 23.875 17.644C24.0625 17.644 23.6875 17.4565 23.5 17.269C23.3125 17.0815 23.5 17.0815 23.5 16.894C23.5 16.7065 23.5 16.3315 23.3125 16.144C23.1625 15.994 23.625 15.7065 23.875 15.5815C24.0625 15.519 24.4375 15.3565 24.4375 15.2065C24.4375 15.0565 24.8125 14.894 25 14.8315L25.375 14.269V13.7065L24.625 13.519Z" fill="#FDC040"/>
<path d="M3.27148 23.3038C3.27148 24.243 4.03561 25.0072 4.97482 25.0072C5.91405 25.0072 6.67818 24.243 6.67818 23.3038C6.67818 22.3645 5.91405 21.6004 4.97482 21.6004C4.03561 21.6004 3.27148 22.3645 3.27148 23.3038ZM5.79933 23.3038C5.79933 23.7584 5.42951 24.1282 4.97486 24.1282C4.52025 24.1282 4.15045 23.7584 4.15045 23.3038C4.15045 22.8492 4.52028 22.4793 4.97486 22.4793C5.42943 22.4793 5.79933 22.8492 5.79933 23.3038Z" fill="#3BB77E"/>
<path d="M7.13987 20.9557C7.87933 20.9557 8.48094 20.3541 8.48094 19.6147C8.48094 18.8752 7.87933 18.2736 7.13987 18.2736C6.4004 18.2736 5.79883 18.8752 5.79883 19.6147C5.79883 20.3541 6.4004 20.9557 7.13987 20.9557ZM7.13987 19.1525C7.39475 19.1525 7.60205 19.3598 7.60205 19.6146C7.60205 19.8694 7.39475 20.0767 7.13987 20.0767C6.88505 20.0767 6.67772 19.8694 6.67772 19.6146C6.67772 19.3598 6.88509 19.1525 7.13987 19.1525Z" fill="#3BB77E"/>
<path d="M11.817 26.4555C11.817 25.7161 11.2153 25.1145 10.4758 25.1145C9.73642 25.1145 9.13477 25.7161 9.13477 26.4555C9.13477 27.195 9.73642 27.7966 10.4758 27.7966C11.2153 27.7966 11.817 27.195 11.817 26.4555ZM10.0137 26.4555C10.0137 26.2007 10.221 25.9934 10.4759 25.9934C10.7308 25.9934 10.9381 26.2007 10.9381 26.4555C10.9381 26.7104 10.7308 26.9177 10.4759 26.9177C10.221 26.9177 10.0137 26.7104 10.0137 26.4555Z" fill="#3BB77E"/>
<path d="M29.4992 19.0413C29.3726 18.1208 28.5774 17.4266 27.6495 17.4266H27.3382L27.6381 16.6466C27.7252 16.4201 27.6122 16.1658 27.3856 16.0787C27.1591 15.9915 26.9048 16.1047 26.8178 16.3311L26.3966 17.4266H24.5678C24.5059 17.3969 24.4432 17.369 24.3793 17.3451C23.9224 17.1749 23.6908 16.9096 23.6908 16.5569C23.6908 16.2283 24.2465 15.9617 24.4858 15.8621C25.1957 15.5659 25.7046 14.9393 25.847 14.1857C26.142 12.6207 26.2759 10.9464 26.3296 10.087C26.3569 9.64077 26.2559 9.20419 26.0375 8.82451C24.8902 6.82973 22.812 5.47148 22.117 5.05572V3.65039H22.1399C22.3826 3.65039 22.5794 3.45363 22.5794 3.21094V1.63072C22.5794 0.845388 21.9404 0.206482 21.155 0.206482H17.6747C16.8894 0.206482 16.2505 0.845388 16.2505 1.63072V3.21094C16.2505 3.45363 16.4472 3.65039 16.6899 3.65039H16.7129V5.05553C16.2644 5.32384 15.2396 5.98516 14.2608 6.95629V6.64797C14.7614 6.37718 15.1022 5.84734 15.1022 5.23939C15.1022 4.35691 14.3842 3.63902 13.5017 3.63902H6.55806C5.67561 3.63902 4.95771 4.35698 4.95771 5.23939C4.95771 5.84749 5.29866 6.37741 5.7994 6.64816V7.99272C5.19786 8.34364 3.56376 9.38671 2.12423 11.116C1.86559 11.4275 1.70077 11.8056 1.64757 12.2095C1.57602 12.753 1.4688 13.6403 1.36438 14.7808C1.34223 15.0225 1.52024 15.2364 1.76194 15.2585C1.77554 15.2597 1.78907 15.2604 1.80249 15.2604C2.02708 15.2604 2.21874 15.0891 2.2396 14.861C2.34272 13.7348 2.44836 12.8598 2.51891 12.3243C2.54188 12.15 2.60012 11.9842 2.68872 11.8361H12.6475C12.725 12.5671 12.8333 13.3908 12.9828 14.1854C13.1245 14.939 13.6334 15.5658 14.3445 15.8622C14.5832 15.9616 15.1385 16.2281 15.1385 16.5569C15.1385 16.9097 14.9071 17.1749 14.4504 17.3452C13.6304 17.6515 13.0522 18.407 12.9775 19.2698C12.8045 21.2602 12.6761 25.1116 13.7602 28.5432C13.8515 28.8324 13.9939 29.0937 14.1753 29.3193C14.0909 29.3245 14.0064 29.3276 13.9215 29.3276H6.13795C4.01335 29.3276 2.22717 27.6709 2.07155 25.556C1.87057 22.8242 1.88024 19.8118 2.10038 16.6025C2.11696 16.3603 1.93415 16.1506 1.69204 16.134C1.4501 16.1172 1.2401 16.3001 1.22352 16.5423C1.00057 19.793 0.990964 22.8473 1.19505 25.6204C1.28704 26.8713 1.84479 28.0302 2.76554 28.8839C3.68546 29.7367 4.88316 30.2065 6.13795 30.2065H13.9216C14.3462 30.2065 14.7665 30.1526 15.1737 30.0467C15.4432 30.15 15.735 30.2062 16.0379 30.2062L27.6495 30.2065C28.5774 30.2065 29.3726 29.5123 29.4992 28.5917C29.9348 25.4231 29.9348 22.2099 29.4992 19.0413ZM28.906 25.4772C28.556 25.6914 28.1577 25.8041 27.7426 25.8041C26.511 25.8041 25.5091 24.8023 25.5091 23.5711C25.5091 22.3395 26.5111 21.3375 27.7426 21.3375C28.1464 21.3375 28.5347 21.4441 28.8771 21.6468C28.9582 22.9223 28.9681 24.2011 28.906 25.4772ZM25.4524 10.0327C25.4104 10.7043 25.3183 11.8856 25.1363 13.1093H13.6939C13.5122 11.8867 13.4194 10.7048 13.377 10.0332C13.3602 9.75901 13.4214 9.49276 13.5542 9.26251C13.6078 9.16928 13.664 9.07756 13.7222 8.98722H25.1075C25.1657 9.07756 25.222 9.16932 25.2756 9.26254C25.408 9.49272 25.4691 9.75919 25.4524 10.0327ZM6.67832 6.83982H13.3819V7.81066H6.67832V6.83982ZM17.1294 1.63072C17.1294 1.33002 17.374 1.08539 17.6747 1.08539H21.155C21.4558 1.08539 21.7004 1.33002 21.7004 1.63072V2.77148H17.1294V1.63072ZM21.2381 3.65039V4.87024H17.5919V3.65039H21.2381ZM17.2682 5.74917H21.5616C21.9326 5.96588 23.327 6.82546 24.4428 8.10837H14.3869C15.5027 6.82523 16.8976 5.96562 17.2682 5.74917ZM6.55806 4.51793H13.5017C13.8996 4.51793 14.2232 4.84159 14.2232 5.23939C14.2232 5.63708 13.8999 5.96056 13.5022 5.96086H6.5575C6.15988 5.96056 5.83656 5.63701 5.83656 5.23939C5.83656 4.84159 6.16022 4.51793 6.55806 4.51793ZM3.45102 10.9571C4.71921 9.65701 6.00535 8.88586 6.35188 8.68969H12.8725C12.8456 8.73421 12.8187 8.77864 12.7927 8.82379C12.5738 9.20326 12.4725 9.64002 12.4998 10.0878C12.5147 10.3228 12.5356 10.6192 12.5641 10.9571H3.45102ZM27.6495 29.3276H22.792L22.4839 29.3273C21.9953 29.3244 21.5774 28.9578 21.5107 28.472C21.4415 27.9683 21.3833 27.4614 21.3377 26.9652C21.3154 26.7236 21.1016 26.5454 20.8599 26.5679C20.6182 26.5901 20.4403 26.804 20.4625 27.0457C20.5093 27.5548 20.569 28.0749 20.6399 28.5917C20.6769 28.86 20.7709 29.109 20.9082 29.3272H16.0379C15.375 29.3272 14.7965 28.9058 14.5984 28.2785C13.5601 24.9918 13.6858 21.2712 13.8531 19.3457C13.8988 18.8189 14.254 18.3568 14.7577 18.1686C15.5582 17.8701 16.0174 17.2826 16.0174 16.5568C16.0174 16.1232 15.7858 15.5098 14.6824 15.0509C14.2459 14.8689 13.9334 14.4846 13.8466 14.0229C13.8444 14.0114 13.8423 13.9997 13.8402 13.9881H24.9897C24.9876 13.9996 24.9855 14.0111 24.9833 14.0225C24.896 14.4845 24.5835 14.8689 24.1477 15.0507C23.0435 15.51 22.8118 16.1233 22.8118 16.5569C22.8118 16.8783 22.9023 17.1725 23.0723 17.4266H22.4896C21.5617 17.4266 20.7664 18.1208 20.6398 19.0413C20.3562 21.101 20.2566 23.1997 20.3437 25.279C20.3539 25.5215 20.5611 25.7095 20.8012 25.6996C21.0437 25.6895 21.2321 25.4846 21.2219 25.2422C21.137 23.2151 21.2341 21.1692 21.5105 19.1611C21.5777 18.6734 21.9986 18.3055 22.4897 18.3055H27.6495C28.1405 18.3055 28.5614 18.6734 28.6286 19.161C28.6963 19.6536 28.752 20.1474 28.7981 20.6419C28.4629 20.5211 28.1072 20.4586 27.7426 20.4586C26.0264 20.4586 24.6301 21.8548 24.6301 23.5711C24.6301 25.287 26.0264 26.6829 27.7426 26.6829C28.1232 26.6829 28.4937 26.615 28.8416 26.4836C28.7896 27.1478 28.7195 27.8109 28.6286 28.4719C28.5614 28.9597 28.1405 29.3276 27.6495 29.3276Z" fill="#3BB77E"/>
</g>
</g>
</g>
</g>
<defs>
<clipPath id="clip0_6511_535">
<rect width="30" height="30" fill="white" transform="translate(0.4375 0.206482)"/>
</clipPath>
<clipPath id="clip1_6511_535">
<rect width="30" height="30" fill="white" transform="translate(0.4375 0.206482)"/>
</clipPath>
<clipPath id="clip2_6511_535">
<rect width="30" height="30" fill="white" transform="translate(0.4375 0.206482)"/>
</clipPath>
</defs>
</svg>

<svg xmlns="http://www.w3.org/2000/svg" width="31" height="31" fill="none"><g clip-path="url(#a)"><g clip-path="url(#b)"><g clip-path="url(#c)"><mask id="d" width="31" height="31" x="0" y="0" maskUnits="userSpaceOnUse" style="mask-type:luminance"><path fill="#fff" d="M30.438.206h-30v30h30z"/></mask><g mask="url(#d)"><path fill="#FDC040" d="M24.625 13.519h-11.25v.75l.188.375.937.938.75.374.375.563-.187.75-1.313.563-.75 1.312-.187 3.938.562 4.312.375 1.313.75.75c.188.062.637.187.938.187.374 0 2.062.188 2.437.188h3.375l-.375-.75c-.125-.313-.375-1.05-.375-1.5s-.125-1.688-.187-2.25v-2.813c0-.3.375-2.5.562-3.562v-.563c0-.187.563-.187.75-.375.188-.187.75-.187.938-.187s.75-.188.937-.188-.187-.187-.375-.375c-.187-.187 0-.187 0-.375 0-.187 0-.562-.187-.75-.15-.15.312-.437.562-.562.188-.063.563-.226.563-.376s.375-.312.562-.374l.375-.563v-.562z"/><path fill="#3BB77E" d="M3.271 23.304c0 .939.765 1.703 1.704 1.703s1.703-.764 1.703-1.703S5.914 21.6 4.975 21.6s-1.704.764-1.704 1.704m2.528 0a.825.825 0 0 1-1.649 0 .825.825 0 0 1 1.65 0M7.14 20.956c.74 0 1.34-.602 1.34-1.341 0-.74-.6-1.341-1.34-1.341s-1.341.601-1.341 1.34.601 1.342 1.34 1.342m0-1.803a.463.463 0 1 1-.001.925.463.463 0 0 1 0-.925M11.817 26.456c0-.74-.602-1.341-1.341-1.341-.74 0-1.341.601-1.341 1.34s.601 1.342 1.34 1.342 1.342-.602 1.342-1.341m-1.803 0a.463.463 0 1 1 .925 0 .463.463 0 0 1-.925 0"/><path fill="#3BB77E" d="M29.5 19.041a1.875 1.875 0 0 0-1.85-1.614h-.312l.3-.78a.44.44 0 0 0-.82-.316l-.421 1.096h-1.83a2 2 0 0 0-.188-.082q-.687-.257-.688-.788c0-.329.556-.595.795-.695a2.27 2.27 0 0 0 1.361-1.676c.295-1.565.429-3.24.483-4.099a2.25 2.25 0 0 0-.292-1.262c-1.148-1.995-3.226-3.354-3.921-3.77V3.65h.023a.44.44 0 0 0 .44-.44V1.63c0-.785-.64-1.424-1.425-1.424h-3.48c-.786 0-1.425.64-1.425 1.425v1.58c0 .243.197.44.44.44h.023v1.405c-.449.268-1.473.93-2.452 1.9v-.308a1.602 1.602 0 0 0-.76-3.009H6.559c-.882 0-1.6.718-1.6 1.6 0 .608.34 1.138.841 1.41v1.344a14.5 14.5 0 0 0-3.675 3.123c-.258.312-.423.69-.476 1.094-.072.543-.18 1.43-.284 2.57a.44.44 0 1 0 .876.081c.103-1.126.208-2.001.279-2.537.023-.174.081-.34.17-.488h9.959c.077.731.185 1.555.335 2.35.141.753.65 1.38 1.361 1.676.24.1.795.366.795.695q-.002.531-.689.788a2.28 2.28 0 0 0-1.473 1.925c-.172 1.99-.3 5.842.783 9.273.091.29.234.55.415.776a4 4 0 0 1-.254.009H6.139a4.09 4.09 0 0 1-4.066-3.772c-.201-2.732-.192-5.744.028-8.954a.44.44 0 0 0-.876-.06C1 19.793.99 22.847 1.195 25.62a4.93 4.93 0 0 0 1.57 3.264 4.95 4.95 0 0 0 3.373 1.322h7.784c.424 0 .845-.053 1.252-.16.27.104.561.16.864.16H27.65c.927 0 1.723-.694 1.85-1.614a35 35 0 0 0 0-9.55m-.594 6.436a2.236 2.236 0 0 1-3.397-1.906 2.236 2.236 0 0 1 3.368-1.924q.122 1.914.029 3.83m-3.454-15.444a38 38 0 0 1-.316 3.076H13.694a38 38 0 0 1-.317-3.076c-.017-.274.044-.54.177-.77q.081-.14.168-.276h11.386q.087.135.168.276c.132.23.193.496.176.77M6.678 6.84h6.704v.97H6.678zM17.13 1.63c0-.3.245-.545.546-.545h3.48c.3 0 .545.245.545.546v1.14h-4.57zm4.11 2.02v1.22h-3.647V3.65zm-3.97 2.1h4.293c.37.216 1.765 1.075 2.88 2.358H14.388c1.116-1.283 2.51-2.142 2.881-2.359M6.558 4.517h6.943a.722.722 0 0 1 0 1.443H6.557a.722.722 0 0 1 .001-1.443m-3.108 6.44a13.8 13.8 0 0 1 2.9-2.268h6.522l-.08.134c-.22.38-.32.816-.293 1.264.015.235.036.531.064.87zm24.199 18.37h-5.166a.99.99 0 0 1-.973-.856c-.07-.504-.128-1.01-.173-1.507a.44.44 0 1 0-.876.08 35 35 0 0 0 .178 1.547c.037.268.13.517.268.735h-4.87a1.5 1.5 0 0 1-1.44-1.049c-1.038-3.286-.912-7.007-.745-8.932.046-.527.401-.99.905-1.177.8-.299 1.26-.886 1.26-1.612 0-.434-.232-1.047-1.336-1.506a1.39 1.39 0 0 1-.835-1.028l-.007-.035h11.15l-.007.035c-.087.462-.4.846-.835 1.028-1.104.459-1.336 1.072-1.336 1.506 0 .321.09.616.26.87h-.582c-.928 0-1.724.694-1.85 1.614a35 35 0 0 0-.296 6.238.44.44 0 0 0 .878-.037 34 34 0 0 1 .289-6.08.99.99 0 0 1 .979-.857h5.16c.49 0 .911.368.979.856q.1.74.17 1.48a3.116 3.116 0 0 0-4.168 2.93 3.116 3.116 0 0 0 4.21 2.913 34 34 0 0 1-.212 1.988.99.99 0 0 1-.98.856"/></g></g></g></g><defs><clipPath id="a"><path fill="#fff" d="M.438.206h30v30h-30z"/></clipPath><clipPath id="b"><path fill="#fff" d="M.438.206h30v30h-30z"/></clipPath><clipPath id="c"><path fill="#fff" d="M.438.206h30v30h-30z"/></clipPath></defs></svg>
